src/assets/icons/real-estate/bed.svg

<svg width="48" height="48" viewBox="0 0 48 48" fill="none" xmlns="http://www.w3.org/2000/svg">
<rect width="48" height="48" fill="white"/>
<path fill-rule="evenodd" clip-rule="evenodd" d="M23 33.5001V29.9518L38 21.645V24.1783V25.1656V25.1932L23 33.5001ZM10 28.1274V27.1401V24.7332L21 29.7366V33.3757L10 28.3702V28.1274ZM21.535 18.1244C21.566 18.1402 21.589 18.1679 21.622 18.1807L32.357 22.5059L22.222 28.1195L11.312 23.1555L21.535 18.1244ZM26.987 14.3679C26.988 14.3462 27 14.3274 27 14.3057V12.421L38 16.5823V18.5332L26.987 14.3679ZM25.791 16.0295L29.511 17.4363L27.883 18.3377C27.809 18.3791 27.756 18.4404 27.696 18.4956L23.893 16.9634L25.791 16.0295ZM34.587 21.2718L30.005 19.4256L31.939 18.3545L36.643 20.1335L34.587 21.2718ZM39.962 16.0926C40.054 15.6296 39.818 15.1557 39.357 14.982L26.357 10.0654C25.844 9.87092 25.264 10.1246 25.066 10.6341C24.997 10.8138 25.001 10.9944 25.035 11.1702C25.024 11.2284 25 11.2817 25 11.3439V14.2129L8.554 22.3075C8.461 22.3529 8.38 22.4141 8.308 22.4832C8.29 22.499 8.278 22.5197 8.263 22.5375C8.2 22.6046 8.149 22.6797 8.109 22.7616C8.094 22.7912 8.081 22.8218 8.069 22.8534C8.032 22.9521 8.009 23.0558 8.006 23.1644C8.005 23.1733 8 23.1812 8 23.1911V27.1401V28.1274V32.0764C8 32.6214 8.447 33.0637 9 33.0637C9.553 33.0637 10 32.6214 10 32.0764V30.5452L21 35.5486V37.0127C21 37.5577 21.447 38 22 38C22.553 38 23 37.5577 23 37.0127V35.7639L38 27.457V29.1146C38 29.6596 38.447 30.1019 39 30.1019C39.553 30.1019 40 29.6596 40 29.1146V25.1656V24.1783V20.2293V16.2802C40 16.2131 39.975 16.1558 39.962 16.0926Z" fill="#253238"/>
</svg>

<svg width="48" height="48" viewBox="0 0 48 48" fill="none" xmlns="http://www.w3.org/2000/svg"><path fill-rule="evenodd" clip-rule="evenodd" d="M23 33.5v-3.548l15-8.307v3.548L23 33.5zm-13-5.373v-3.394l11 5.004v3.639L10 28.37v-.243zm11.535-10.003c.031.016.054.044.087.057l10.735 4.325-10.135 5.613-10.91-4.963 10.223-5.032zm5.452-3.756c.001-.022.013-.04.013-.062V12.42l11 4.161v1.951l-11.013-4.165zm-1.196 1.661l3.72 1.407-1.628.902c-.074.041-.127.102-.187.158l-3.803-1.533 1.898-.934zm8.796 5.243l-4.582-1.846 1.934-1.071 4.704 1.779-2.056 1.138zm5.375-5.18a.971.971 0 00-.605-1.11l-13-4.917a1.005 1.005 0 00-1.291.57.956.956 0 00-.031.535c-.011.058-.035.112-.035.174v2.869L8.554 22.308a.973.973 0 00-.246.175c-.018.016-.03.037-.045.055a.907.907 0 00-.194.315.958.958 0 00-.063.311c-.001.01-.006.017-.006.027v8.886c0 .544.447.987 1 .987.553 0 1-.443 1-.988v-1.53l11 5.003v1.464c0 .545.447.987 1 .987.553 0 1-.442 1-.987v-1.25l15-8.306v1.658c0 .545.447.987 1 .987.553 0 1-.442 1-.987V16.28c0-.067-.025-.124-.038-.187z" fill="#253238"/></svg>
